src/img/Union10.svg

<svg width="49.000000" height="49.000000" viewBox="0 0 49 49" fill="none" xmlns="http://www.w3.org/2000/svg" xmlns:xlink="http://www.w3.org/1999/xlink">
	<desc>
			Created with Pixso.
	</desc>
	<defs/>
	<path id="Union" d="M24.5 49C38.0308 49 49 38.0312 49 24.5C49 10.9688 38.0308 0 24.5 0C10.9692 0 0 10.9688 0 24.5C0 38.0312 10.9692 49 24.5 49ZM24.5 47.5244C37.2158 47.5244 47.5239 37.2158 47.5239 24.5C47.5239 11.7842 37.2158 1.47559 24.5 1.47559C11.7842 1.47559 1.47607 11.7842 1.47607 24.5C1.47607 37.2158 11.7842 47.5244 24.5 47.5244ZM25.5332 27.3047L25.5332 9.44531L24.0571 9.44531L24.0571 28.7803L37.1929 28.7803L37.1929 27.3047L25.5332 27.3047Z" fill="#FFFFFF" fill-opacity="1.000000" fill-rule="evenodd"/>
</svg>

<svg width="49" height="49" fill="none" xmlns="http://www.w3.org/2000/svg"><path d="M24.5 49C38.03 49 49 38.031 49 24.5S38.03 0 24.5 0 0 10.969 0 24.5 10.97 49 24.5 49Zm0-1.476c12.716 0 23.024-10.308 23.024-23.024 0-12.716-10.308-23.024-23.024-23.024-12.716 0-23.024 10.308-23.024 23.024 0 12.716 10.308 23.024 23.024 23.024Zm1.033-20.22V9.446h-1.476V28.78h13.136v-1.475h-11.66Z" fill="#FFF" fill-rule="evenodd"/></svg>
